icons/pencil-ruler-2-line.svg

<svg viewBox="0 0 24 24" fill="currentColor" xmlns="http://www.w3.org/2000/svg"><path d="M7.05033 14.1213L4.929 16.2427L7.75743 19.0711L19.0711 7.75737L16.2427 4.92894L14.1214 7.05026L15.5356 8.46448L14.1214 9.87869L12.7072 8.46448L11.293 9.87869L12.7072 11.2929L11.293 12.7071L9.87875 11.2929L8.46454 12.7071L9.87875 14.1213L8.46454 15.5355L7.05033 14.1213ZM16.9498 2.80762L21.1925 7.05026C21.583 7.44079 21.583 8.07395 21.1925 8.46448L8.46454 21.1924C8.07401 21.5829 7.44085 21.5829 7.05033 21.1924L2.80768 16.9498C2.41716 16.5592 2.41716 15.9261 2.80768 15.5355L15.5356 2.80762C15.9261 2.4171 16.5593 2.4171 16.9498 2.80762ZM14.1214 18.3635L15.5356 16.9493L17.7781 19.1918H19.1923V17.7776L16.9498 15.5351L18.364 14.1208L20.9997 16.7565V20.9999H16.7578L14.1214 18.3635ZM5.63597 9.87806L2.80754 7.04963C2.41702 6.65911 2.41702 6.02594 2.80754 5.63542L5.63597 2.80699C6.02649 2.41647 6.65966 2.41647 7.05018 2.80699L9.87861 5.63542L8.4644 7.04963L6.34308 4.92831L4.92886 6.34253L7.05018 8.46385L5.63597 9.87806Z"/></svg>

<svg xmlns="http://www.w3.org/2000/svg" viewBox="0 0 24 24">
    <g>
        <path fill="none" d="M0 0h24v24H0z"/>
        <path d="M7.05 14.121L4.93 16.243l2.828 2.828L19.071 7.757 16.243 4.93 14.12 7.05l1.415 1.414L14.12 9.88l-1.414-1.415-1.414 1.415 1.414 1.414-1.414 1.414-1.414-1.414-1.415 1.414 1.415 1.414-1.415 1.415L7.05 14.12zm9.9-11.313l4.242 4.242a1 1 0 0 1 0 1.414L8.464 21.192a1 1 0 0 1-1.414 0L2.808 16.95a1 1 0 0 1 0-1.414L15.536 2.808a1 1 0 0 1 1.414 0zM14.12 18.363l1.415-1.414 2.242 2.243h1.414v-1.414l-2.242-2.243 1.414-1.414L21 16.757V21h-4.242l-2.637-2.637zM5.636 9.878L2.807 7.05a1 1 0 0 1 0-1.415l2.829-2.828a1 1 0 0 1 1.414 0L9.88 5.635 8.464 7.05 6.343 4.928 4.929 6.343l2.121 2.12-1.414 1.415z"/>
    </g>
</svg>
